icons/reset.svg

<?xml version="1.0" encoding="UTF-8"?>
<svg xmlns="http://www.w3.org/2000/svg" xmlns:xlink="http://www.w3.org/1999/xlink" viewBox="0 0 50 50" version="1.1" width="500px" height="500px">
<g id="surface1">
<path style=" " d="M 25 5 C 14.351563 5 5.632813 13.378906 5.054688 23.890625 C 5.007813 24.609375 5.347656 25.296875 5.949219 25.695313 C 6.550781 26.089844 7.320313 26.132813 7.960938 25.804688 C 8.601563 25.476563 9.019531 24.828125 9.046875 24.109375 C 9.511719 15.675781 16.441406 9 25 9 C 29.585938 9 33.699219 10.925781 36.609375 14 L 34 14 C 33.277344 13.988281 32.609375 14.367188 32.246094 14.992188 C 31.878906 15.613281 31.878906 16.386719 32.246094 17.007813 C 32.609375 17.632813 33.277344 18.011719 34 18 L 40.261719 18 C 40.488281 18.039063 40.71875 18.039063 40.949219 18 L 44 18 L 44 8 C 44.007813 7.460938 43.796875 6.941406 43.414063 6.558594 C 43.03125 6.175781 42.511719 5.964844 41.96875 5.972656 C 40.867188 5.988281 39.984375 6.894531 40 8 L 40 11.777344 C 36.332031 7.621094 30.964844 5 25 5 Z M 43.03125 23.972656 C 41.925781 23.925781 40.996094 24.785156 40.953125 25.890625 C 40.488281 34.324219 33.558594 41 25 41 C 20.414063 41 16.304688 39.074219 13.390625 36 L 16 36 C 16.722656 36.011719 17.390625 35.632813 17.753906 35.007813 C 18.121094 34.386719 18.121094 33.613281 17.753906 32.992188 C 17.390625 32.367188 16.722656 31.988281 16 32 L 9.71875 32 C 9.507813 31.96875 9.296875 31.96875 9.085938 32 L 6 32 L 6 42 C 5.988281 42.722656 6.367188 43.390625 6.992188 43.753906 C 7.613281 44.121094 8.386719 44.121094 9.007813 43.753906 C 9.632813 43.390625 10.011719 42.722656 10 42 L 10 38.222656 C 13.667969 42.378906 19.035156 45 25 45 C 35.648438 45 44.367188 36.621094 44.945313 26.109375 C 44.984375 25.570313 44.800781 25.039063 44.441406 24.636719 C 44.078125 24.234375 43.570313 23.996094 43.03125 23.972656 Z "/>
</g>
</svg>

<svg width="50" height="50" xmlns="http://www.w3.org/2000/svg">
 <g>
  <title>background</title>
  <rect x="-1" y="-1" width="52" height="52" id="canvas_background" fill="none"/>
 </g>

 <g>
  <title>Layer 1</title>
  <ellipse stroke="#000" ry="30.5" rx="26.000001" id="svg_2" cy="24.921876" cx="25" fill-opacity="null" stroke-opacity="null" stroke-width="1.5" fill="#fff"/>
  <g id="surface1">
   <path d="m25,5c-10.64844,0 -19.36719,8.37891 -19.94531,18.89063c-0.04688,0.71875 0.29297,1.40625 0.89453,1.80468c0.60156,0.39453 1.37109,0.4375 2.01172,0.10938c0.64062,-0.32813 1.05859,-0.97656 1.08594,-1.69531c0.46484,-8.4336 7.39453,-15.10938 15.95312,-15.10938c4.58594,0 8.69922,1.92578 11.60938,5l-2.60938,0c-0.72266,-0.01172 -1.39062,0.36719 -1.75391,0.99219c-0.36718,0.62109 -0.36718,1.39453 0,2.01562c0.36329,0.625 1.03125,1.00391 1.75391,0.99219l6.26172,0c0.22656,0.03906 0.45703,0.03906 0.6875,0l3.05078,0l0,-10c0.00781,-0.53906 -0.20312,-1.05859 -0.58594,-1.44141c-0.38281,-0.38281 -0.90234,-0.59375 -1.44531,-0.58593c-1.10156,0.01562 -1.98437,0.92187 -1.96875,2.02734l0,3.77734c-3.66797,-4.15625 -9.03516,-6.77734 -15,-6.77734zm18.03125,18.97266c-1.10547,-0.04688 -2.03516,0.8125 -2.07812,1.91797c-0.46485,8.43359 -7.39454,15.10937 -15.95313,15.10937c-4.58594,0 -8.69531,-1.92578 -11.60937,-5l2.60937,0c0.72266,0.01172 1.39063,-0.36719 1.75391,-0.99219c0.36718,-0.62109 0.36718,-1.39453 0,-2.01562c-0.36328,-0.625 -1.03125,-1.00391 -1.75391,-0.99219l-6.28125,0c-0.21094,-0.03125 -0.42187,-0.03125 -0.63281,0l-3.08594,0l0,10c-0.01172,0.72266 0.36719,1.39063 0.99219,1.75391c0.62109,0.36718 1.39453,0.36718 2.01562,0c0.625,-0.36328 1.00391,-1.03125 0.99219,-1.75391l0,-3.77734c3.66797,4.15625 9.03516,6.77734 15,6.77734c10.64844,0 19.36719,-8.37891 19.94531,-18.89062c0.03907,-0.53907 -0.14453,-1.07032 -0.5039,-1.47266c-0.36328,-0.40234 -0.8711,-0.64063 -1.41016,-0.66406z" id="svg_1"/>
  </g>
 </g>
</svg>
